src/assets/filled/ArrowLeft1.svg

<?xml version="1.0" encoding="UTF-8"?>
<svg width="24" height="24" viewBox="0 0 24 24" xmlns="http://www.w3.org/2000/svg">
 <path d="m16.19 2h-8.38c-3.64 0-5.81 2.17-5.81 5.81v8.37c0 3.65 2.17 5.82 5.81 5.82h8.37c3.64 0 5.81-2.17 5.81-5.81v-8.38c0.01-3.64-2.16-5.81-5.8-5.81zm1.81 10.75h-10.19l3.01 3.01c0.29 0.29 0.29 0.77 0 1.06-0.15 0.15-0.34 0.22-0.53 0.22s-0.38-0.07-0.53-0.22l-4.29-4.29c-0.14-0.14-0.22-0.33-0.22-0.53s0.08-0.39 0.22-0.53l4.29-4.29c0.29-0.29 0.77-0.29 1.06 0s0.29 0.77 0 1.06l-3.01 3.01h10.19c0.41 0 0.75 0.34 0.75 0.75s-0.34 0.75-0.75 0.75z"/>
</svg>

<svg width="24" height="24" viewBox="0 0 24 24"  xmlns="http://www.w3.org/2000/svg">
<path d="M16.19 2H7.81C4.17 2 2 4.17 2 7.81V16.18C2 19.83 4.17 22 7.81 22H16.18C19.82 22 21.99 19.83 21.99 16.19V7.81C22 4.17 19.83 2 16.19 2ZM18 12.75H7.81L10.82 15.76C11.11 16.05 11.11 16.53 10.82 16.82C10.67 16.97 10.48 17.04 10.29 17.04C10.1 17.04 9.91 16.97 9.76 16.82L5.47 12.53C5.33 12.39 5.25 12.2 5.25 12C5.25 11.8 5.33 11.61 5.47 11.47L9.76 7.18C10.05 6.89 10.53 6.89 10.82 7.18C11.11 7.47 11.11 7.95 10.82 8.24L7.81 11.25H18C18.41 11.25 18.75 11.59 18.75 12C18.75 12.41 18.41 12.75 18 12.75Z" />
</svg>
